X:1
T:Partition sans titre
C:Compositeur / Arrangeur
L:1/8
M:4/4
I:linebreak $
K:D
V:1 treble nm="Violon" snm="Vln."
V:1
"D" a3 a"A7" gfeg |"D" fefg afdf |"A7" edef gecA |"D" defg agfg |"D" a3 a"A7" gfeg |"D" fefg afdf | %6
"A7" edef gecA |1"D" dfec d2 fg :|2"D" dfec d2 AA |:"D" Afed"G" B3 B | Bgfe"A" a2 aa | %11
"D" Afed"A7" cAce | ageg"D" fafd |"D" Afed"G" B3 B | Bgfe"A" a2 aa |"D" Afed"A7" cAce |1 %16
 agec"D" d2 dd :|2 agec"D" d4 |] %18
